app/dist/common/images/mayville-engineering-company.svg

<svg height="18" viewBox="0 0 18 18" width="18" xmlns="http://www.w3.org/2000/svg"><path d="m0 0h18v18h-18z" fill="#f0f3fa"/><g fill="#eb1c2e"><path d="m9 14c3.87 0 7-2.24 7-5s-3.13-5-7-5-7 2.24-7 5 3.13 5 7 5zm.03-.71c3.5 0 6.33-1.92 6.33-4.29s-2.84-4.29-6.33-4.29c-3.5 0-6.33 1.92-6.33 4.29s2.84 4.29 6.33 4.29z" fill-rule="evenodd"/><path d="m4 7.55c0-.3.26-.55.58-.55h2.84c.32 0 .58.25.58.55v3.45h-1v-2.68a.32.32 0 1 0 -.65 0v2.68h-.7v-2.68a.32.32 0 1 0 -.65 0v2.68h-1z"/><path d="m9.48 7c-.28 0-.48.24-.48.55v2.9c0 .3.21.55.48.55h1.04c.27 0 .48-.24.48-.55v-2.9c0-.3-.21-.55-.48-.55zm1.1 1.29v.38h-.58v-.38a.29.29 0 1 1 .57 0zm-.44 1.04h-.14v.38a.29.29 0 1 0 .57 0v-.04h.43v-.34zm1.86-1.78c0-.3.21-.55.48-.55h1.04c.27 0 .48.24.48.55v2.9c0 .3-.21.55-.48.55h-1.04c-.27 0-.48-.24-.48-.55zm1 .74a.29.29 0 1 1 .57 0v.04h.43v1.34h-.43v.04a.29.29 0 1 1 -.57 0v-1.41z" fill-rule="evenodd"/></g></svg>

<!-- by TradingView --><svg width="18" height="18" viewBox="0 0 18 18" xmlns="http://www.w3.org/2000/svg"><path fill="#F0F3FA" d="M0 0h18v18H0z"/><path fill-rule="evenodd" d="M9 14c3.87 0 7-2.24 7-5s-3.13-5-7-5-7 2.24-7 5 3.13 5 7 5Zm.03-.71c3.5 0 6.33-1.92 6.33-4.29s-2.84-4.29-6.33-4.29C5.53 4.71 2.7 6.63 2.7 9s2.84 4.29 6.33 4.29Z" fill="#EB1C2E"/><path d="M4 7.55c0-.3.26-.55.58-.55h2.84c.32 0 .58.25.58.55V11H7V8.32a.32.32 0 1 0-.65 0V11h-.7V8.32a.32.32 0 1 0-.65 0V11H4V7.55Z" fill="#EB1C2E"/><path fill-rule="evenodd" d="M9.48 7C9.2 7 9 7.24 9 7.55v2.9c0 .3.21.55.48.55h1.04c.27 0 .48-.24.48-.55V7.55c0-.3-.21-.55-.48-.55H9.48Zm1.1 1.29v.38H10v-.38a.29.29 0 1 1 .57 0Zm-.44 1.04H10v.38a.29.29 0 1 0 .57 0v-.04H11v-.34h-.86ZM12 7.55c0-.3.21-.55.48-.55h1.04c.27 0 .48.24.48.55v2.9c0 .3-.21.55-.48.55h-1.04c-.27 0-.48-.24-.48-.55v-2.9Zm1 .74a.29.29 0 1 1 .57 0v.04H14v1.34h-.43v.04a.29.29 0 1 1-.57 0V8.3Z" fill="#EB1C2E"/></svg>
